X:16418
T:That's Right Too
M:4/4
L:1/8
C:Liz Carroll
Z:alf.warnock@nrc.ca
K:D
|: "D"D2FA FED2| "G"d2ef edBA| "D"D2FA FED2| "G"BcdD "A"FEE2|
"D"D2FA FED2| "G"d2ef edBA| "D"dDDD "G"BcdB| "A7"AFEF "D"D4:|
b| "D"afef d3A| "G"B2AF "D"EDDb| "D"afef "Em"d3d| "A7"efaA f3c|
"D"d2ef edBA| "G"BcdD "D"FEEc| "D"dDDD "G"BcdB| "A7"AFEF "D"D4:|
